docs/science/organic/naien.svg

<svg xmlns="http://www.w3.org/2000/svg" xmlns:xlink="http://www.w3.org/1999/xlink" width="456" height="141" x="0" y="0" version="1.1" viewBox="349 288 456 141"><g><g><rect width="456" height="141" x="349" y="288" fill="none" stroke="none"/><rect width="456" height="141" x="349" y="288" fill="none" fill-opacity="1" stroke="none"/><g><g><path fill="none" stroke="#111" stroke-linecap="round" stroke-linejoin="round" stroke-miterlimit="10" stroke-width="1.46" d="M 429.784 320.284 L 429.784 360.284" paint-order="fill stroke markers" transform="scale(1,1)"/></g><g><path fill="none" stroke="#111" stroke-linecap="round" stroke-linejoin="round" stroke-miterlimit="10" stroke-width="1.46" d="M 429.784 360.284 L 464.424 380.31999999999994 M 434.58399999999995 357.5152518432857 L 464.4266313541354 374.77642279627224" paint-order="fill stroke markers" transform="scale(1,1)"/></g><g><path fill="none" stroke="#111" stroke-linecap="round" stroke-linejoin="round" stroke-miterlimit="10" stroke-width="1.46" d="M 464.424 380.31999999999994 L 499.14 360.284" paint-order="fill stroke markers" transform="scale(1,1)"/></g><g><path fill="none" stroke="#111" stroke-linecap="round" stroke-linejoin="round" stroke-miterlimit="10" stroke-width="1.46" d="M 499.14 360.284 L 499.14 320.284 M 494.34 357.5122145295209 L 494.34 323.05578547047907" paint-order="fill stroke markers" transform="scale(1,1)"/></g><g><path fill="none" stroke="#111" stroke-linecap="round" stroke-linejoin="round" stroke-miterlimit="10" stroke-width="1.46" d="M 499.14 320.284 L 464.424 300.248" paint-order="fill stroke markers" transform="scale(1,1)"/></g><g><path fill="none" stroke="#111" stroke-linecap="round" stroke-linejoin="round" stroke-miterlimit="10" stroke-width="1.46" d="M 434.58399999999995 323.0527481567143 L 464.4266313541354 305.7915772037277 M 429.784 320.284 L 464.424 300.248" paint-order="fill stroke markers" transform="scale(1,1)"/></g><g><path fill="none" stroke="#111" stroke-linecap="round" stroke-linejoin="round" stroke-miterlimit="10" stroke-width="1.46" d="M 429.784 320.284 L 395.144 300.31600000000003" paint-order="fill stroke markers" transform="scale(1,1)"/></g><g><path fill="none" stroke="#111" stroke-linecap="round" stroke-linejoin="round" stroke-miterlimit="10" stroke-width="1.46" d="M 395.144 300.31600000000003 L 360.572 320.284 M 395.1463569308781 305.85774606115564 L 365.372 323.0547366661473" paint-order="fill stroke markers" transform="scale(1,1)"/></g><g><path fill="none" stroke="#111" stroke-linecap="round" stroke-linejoin="round" stroke-miterlimit="10" stroke-width="1.46" d="M 360.572 320.284 L 360.572 360.284" paint-order="fill stroke markers" transform="scale(1,1)"/></g><g><path fill="none" stroke="#111" stroke-linecap="round" stroke-linejoin="round" stroke-miterlimit="10" stroke-width="1.46" d="M 360.572 360.284 L 395.144 380.17600000000004 M 365.37200000000007 357.5079814051008 L 395.1463501912802 374.6395148427077" paint-order="fill stroke markers" transform="scale(1,1)"/></g><g><path fill="none" stroke="#111" stroke-linecap="round" stroke-linejoin="round" stroke-miterlimit="10" stroke-width="1.46" d="M 429.784 360.284 L 395.144 380.17600000000004" paint-order="fill stroke markers" transform="scale(1,1)"/></g><g><path fill="none" stroke="#111" stroke-linecap="round" stroke-linejoin="round" stroke-miterlimit="10" stroke-width="1.46" d="M 584.424 320.284 L 584.424 360.284 M 589.2239999999999 323.05194748001395 L 589.2239999999999 357.5163292952001" paint-order="fill stroke markers" transform="scale(1,1)"/></g><g><path fill="none" stroke="#111" stroke-linecap="round" stroke-linejoin="round" stroke-miterlimit="10" stroke-width="1.46" d="M 584.424 360.284 L 619.044 380.324" paint-order="fill stroke markers" transform="scale(1,1)"/></g><g><path fill="none" stroke="#111" stroke-linecap="round" stroke-linejoin="round" stroke-miterlimit="10" stroke-width="1.46" d="M 619.044 380.324 L 653.736 360.284 M 619.0464960044037 374.7792645906436 L 648.9360000000001 357.5134494150483" paint-order="fill stroke markers" transform="scale(1,1)"/></g><g><path fill="none" stroke="#111" stroke-linecap="round" stroke-linejoin="round" stroke-miterlimit="10" stroke-width="1.46" d="M 653.736 360.284 L 653.736 320.284" paint-order="fill stroke markers" transform="scale(1,1)"/></g><g><path fill="none" stroke="#111" stroke-linecap="round" stroke-linejoin="round" stroke-miterlimit="10" stroke-width="1.46" d="M 653.736 320.284 L 619.044 300.248 M 648.9359999999999 323.05482721708086 L 619.0464956310153 305.7924580963333" paint-order="fill stroke markers" transform="scale(1,1)"/></g><g><path fill="none" stroke="#111" stroke-linecap="round" stroke-linejoin="round" stroke-miterlimit="10" stroke-width="1.46" d="M 584.424 320.284 L 619.044 300.248" paint-order="fill stroke markers" transform="scale(1,1)"/></g><g><path fill="none" stroke="#111" stroke-linecap="round" stroke-linejoin="round" stroke-miterlimit="10" stroke-width="1.46" d="M 653.736 360.284 L 688.36 380.324" paint-order="fill stroke markers" transform="scale(1,1)"/></g><g><path fill="none" stroke="#111" stroke-linecap="round" stroke-linejoin="round" stroke-miterlimit="10" stroke-width="1.46" d="M 688.36 380.324 L 723.124 360.284 M 688.3648440545728 374.78078425285037 L 718.3240000000002 357.510576994009" paint-order="fill stroke markers" transform="scale(1,1)"/></g><g><path fill="none" stroke="#111" stroke-linecap="round" stroke-linejoin="round" stroke-miterlimit="10" stroke-width="1.46" d="M 723.124 360.284 L 723.124 320.284" paint-order="fill stroke markers" transform="scale(1,1)"/></g><g><path fill="none" stroke="#111" stroke-linecap="round" stroke-linejoin="round" stroke-miterlimit="10" stroke-width="1.46" d="M 723.124 320.284 L 688.36 300.248 M 718.3240000000002 323.0576994945133 L 688.3648433295328 305.7909389649574" paint-order="fill stroke markers" transform="scale(1,1)"/></g><g><path fill="none" stroke="#111" stroke-linecap="round" stroke-linejoin="round" stroke-miterlimit="10" stroke-width="1.46" d="M 653.736 320.284 L 688.36 300.248" paint-order="fill stroke markers" transform="scale(1,1)"/></g><g><path fill="none" stroke="#111" stroke-linecap="round" stroke-linejoin="round" stroke-miterlimit="10" stroke-width="1.46" d="M 723.124 360.284 L 757.74 380.324" paint-order="fill stroke markers" transform="scale(1,1)"/></g><g><path fill="none" stroke="#111" stroke-linecap="round" stroke-linejoin="round" stroke-miterlimit="10" stroke-width="1.46" d="M 757.74 380.324 L 792.436 360.284 M 757.7427733386868 374.7792644588638 L 787.6359999999999 357.51328964065095" paint-order="fill stroke markers" transform="scale(1,1)"/></g><g><path fill="none" stroke="#111" stroke-linecap="round" stroke-linejoin="round" stroke-miterlimit="10" stroke-width="1.46" d="M 792.436 360.284 L 792.436 320.284" paint-order="fill stroke markers" transform="scale(1,1)"/></g><g><path fill="none" stroke="#111" stroke-linecap="round" stroke-linejoin="round" stroke-miterlimit="10" stroke-width="1.46" d="M 792.436 320.284 L 757.74 300.248 M 787.6360000000001 323.05498698351397 L 757.7427729238104 305.79245822808" paint-order="fill stroke markers" transform="scale(1,1)"/></g><g><path fill="none" stroke="#111" stroke-linecap="round" stroke-linejoin="round" stroke-miterlimit="10" stroke-width="1.46" d="M 723.124 320.284 L 757.74 300.248" paint-order="fill stroke markers" transform="scale(1,1)"/></g><g><text x="409" y="408.857" fill="#000" stroke="none" dominant-baseline="alphabetic" font-family="'Times New Roman'" font-size="22.857" font-style="normal" font-weight="400" text-anchor="start" text-decoration="normal" transform="scale(1,1)">萘</text><text x="431.857" y="408.857" fill="#000" stroke="none" dominant-baseline="alphabetic" font-family="'Times New Roman'" font-size="22.857" font-style="normal" font-weight="400" text-anchor="start" text-decoration="normal" transform="scale(1,1)">[</text><text x="439.469" y="408.857" fill="#000" stroke="none" dominant-baseline="alphabetic" font-family="'Times New Roman'" font-size="22.857" font-style="normal" font-weight="400" text-anchor="start" text-decoration="normal" transform="scale(1,1)">nai4</text><text x="478.821" y="408.857" fill="#000" stroke="none" dominant-baseline="alphabetic" font-family="'Times New Roman'" font-size="22.857" font-style="normal" font-weight="400" text-anchor="start" text-decoration="normal" transform="scale(1,1)">]</text></g><g><text x="667.571" y="408.857" fill="#000" stroke="none" dominant-baseline="alphabetic" font-family="'Times New Roman'" font-size="22.857" font-style="normal" font-weight="400" text-anchor="start" text-decoration="normal" transform="scale(1,1)">蒽</text><text x="690.429" y="408.857" fill="#000" stroke="none" dominant-baseline="alphabetic" font-family="'Times New Roman'" font-size="22.857" font-style="normal" font-weight="400" text-anchor="start" text-decoration="normal" transform="scale(1,1)">[</text><text x="698.04" y="408.857" fill="#000" stroke="none" dominant-baseline="alphabetic" font-family="'Times New Roman'" font-size="22.857" font-style="normal" font-weight="400" text-anchor="start" text-decoration="normal" transform="scale(1,1)">en1</text><text x="731.031" y="408.857" fill="#000" stroke="none" dominant-baseline="alphabetic" font-family="'Times New Roman'" font-size="22.857" font-style="normal" font-weight="400" text-anchor="start" text-decoration="normal" transform="scale(1,1)">]</text></g></g></g></g></svg>

<svg xmlns="http://www.w3.org/2000/svg" viewBox="349 288 456 141" xmlns:xlink="http://www.w3.org/1999/xlink"><defs><path fill="none" d="M349 288h456v141H349z" id="a"/></defs><use href="#a"/><use href="#a"/><path fill="none" stroke="#111" stroke-linecap="round" stroke-linejoin="round" stroke-miterlimit="10" stroke-width="1.46" d="M429.784 320.284v40m0 0 34.64 20.036m-29.84-22.805 29.843 17.261m-.003 5.544 34.716-20.036m0 0v-40m-4.8 37.228v-34.456m4.8-2.772-34.716-20.036m-29.84 22.805 29.843-17.261m-34.643 14.492 34.64-20.036m-34.64 20.036-34.64-19.968m0 0-34.572 19.968m34.574-14.426-29.774 17.197m-4.8-2.771v40m0 0 34.572 19.892m-29.772-22.668 29.774 17.132m34.638-14.356-34.64 19.892m189.28-59.892v40m4.8-37.232v34.464m-4.8 2.768 34.62 20.04m0 0 34.692-20.04m-34.69 14.495 29.89-17.266m4.8 2.771v-40m0 0-34.692-20.036m29.892 22.807-29.89-17.263m-34.622 14.492 34.62-20.036m34.692 60.036 34.624 20.04m0 0 34.764-20.04m-34.76 14.497 29.96-17.27m4.8 2.773v-40m0 0-34.764-20.036m29.964 22.81-29.96-17.267m-34.628 14.493 34.624-20.036m34.764 60.036 34.616 20.04m0 0 34.696-20.04m-34.693 14.495 29.893-17.266m4.8 2.771v-40m0 0-34.696-20.036m29.896 22.807-29.893-17.263m-34.619 14.492 34.616-20.036" paint-order="fill stroke markers"/><text x="409" y="408.86" dominant-baseline="alphabetic" font-family="'Times New Roman'" font-size="22.86" font-weight="400" text-decoration="normal">萘</text><text x="431.86" y="408.86" dominant-baseline="alphabetic" font-family="'Times New Roman'" font-size="22.86" font-weight="400" text-decoration="normal">[</text><text x="439.47" y="408.86" dominant-baseline="alphabetic" font-family="'Times New Roman'" font-size="22.86" font-weight="400" text-decoration="normal">nai4</text><text x="478.82" y="408.86" dominant-baseline="alphabetic" font-family="'Times New Roman'" font-size="22.86" font-weight="400" text-decoration="normal">]</text><text x="667.57" y="408.86" dominant-baseline="alphabetic" font-family="'Times New Roman'" font-size="22.86" font-weight="400" text-decoration="normal">蒽</text><text x="690.43" y="408.86" dominant-baseline="alphabetic" font-family="'Times New Roman'" font-size="22.86" font-weight="400" text-decoration="normal">[</text><text x="698.04" y="408.86" dominant-baseline="alphabetic" font-family="'Times New Roman'" font-size="22.86" font-weight="400" text-decoration="normal">en1</text><text x="731.03" y="408.86" dominant-baseline="alphabetic" font-family="'Times New Roman'" font-size="22.86" font-weight="400" text-decoration="normal">]</text></svg>
